src/assets/images/martin-logo-transparent.svg

<svg xmlns="http://www.w3.org/2000/svg" width="2000" height="2250" xmlns:v="https://vecta.io/nano"><svg viewBox="0 0 320 360" preserveAspectRatio="xMidYMid meet" height="2250" width="2000"><svg height="360" width="320"><svg height="360" width="320"><path d="M219.58 41.008c.707 0 6.365 2.829 9.547 3.89-1.061.354-3.536-.707-6.365-1.768.707 0 2.122.354 3.536 1.06-.707-.707-6.011-2.475-6.718-3.182m-52.685-10.961c1.061-.354 13.436 1.414 19.094 1.768.354-.354-.707-.354-2.122-.707 1.768-.354 5.304.707 7.779 1.06-7.425.354-15.558-1.768-22.629-1.06-2.475 0-.707-.707-2.122-1.061m-10.254 0c6.365 0 11.315 0 2.121.707-1.061-.354-2.475-.354-2.121-.707m100.066 29.348c.707 0 3.536 3.182 4.95 4.243-.354.354-3.182-2.475-4.596-3.536.354.354 0 0-.354-.707m-7.072-4.597c-2.829-2.475-3.889-2.475-4.243-3.889 2.475 1.414 4.243 2.829 4.243 3.889m-45.613-22.276c.354-.354 1.061.354 2.829.707-2.122-.354-1.768 0-1.061.707-2.475-.354-3.182-.707-2.475-1.414 1.414.707 1.768.354.707 0m-100.42 4.243c0-.354 1.414-1.061 2.475-1.414-1.061.707-.707 1.061 1.061.353 0 .354-2.122 1.061-3.536 1.768.707-.354 1.414-1.414 0-.707m107.492-7.779c-1.061.354-4.95-1.768-8.84-2.475-2.122-.707 8.486 1.768 8.84 2.475M2.475 203.66c2.122 8.84.707 8.486 0 0m.354-53.039c.354-1.414.707-5.304 1.06-4.95-1.061 8.486-2.829 12.376-3.182 18.74 1.061-5.657-.354 3.182-.707 5.304.354 2.829.354-1.768 1.061-1.06.707 1.061-1.414 15.912-.707 7.779-.707 7.425 0 15.558 1.414 17.679C0 205.428 8.84 230.886 10.608 236.19c.354.354 0-1.768.707-.353.707 4.597 3.889 7.779 4.95 12.729 1.061 1.414 5.304 9.193 6.011 10.962 1.414 2.829 2.122 2.475 3.536 5.303 4.243 8.133 10.961 15.912 17.326 23.337 20.508 24.044 51.978 43.845 86.984 50.918 35.006 7.425 71.779 2.122 100.419-11.669 1.768-1.061 1.414-1.414 3.536-2.122 9.901-3.182 21.923-13.436 28.641-17.326 3.182-3.536 11.669-9.547 12.73-13.082 6.011-4.95 12.022-13.083 15.204-18.387 1.768-2.829 3.182-2.829 3.889-4.597-.354 0 5.657-7.425 7.426-11.668-.707 0-1.768 2.122-1.768 0 12.729-24.398 19.801-57.282 15.911-79.912.707 27.934-6.365 59.05-19.801 78.851-6.011 12.729-18.387 26.519-29.701 36.42-1.768 1.768-3.536 3.889-5.658 5.304-6.718 5.657-14.144 10.254-21.922 14.497-18.387 10.254-38.895 19.094-62.94 19.447 41.37-3.536 78.497-24.398 99.006-49.856-15.558 15.204-22.276 21.215-39.602 30.055-1.414 2.475-13.083 7.425-20.862 9.547 4.597-2.122 14.144-5.657 17.326-8.486-25.812 12.376-54.453 19.448-81.326 15.558 10.254 0 24.751.354 38.541-2.121 2.122-.707 3.182-1.414 5.658-1.768 26.873-6.011 52.685-19.094 71.072-37.481-10.608 9.547-26.519 20.862-36.774 24.398 9.547-5.304 26.873-15.558 32.53-23.337-11.315 11.315-32.53 22.63-45.966 27.58-2.122.354 1.414-1.414-2.122 0-4.243 1.061-2.475 1.061-3.536 1.768-16.265 4.597-35.006 8.486-50.563 7.072-2.829-.354-3.889-1.061-6.365-1.061-2.829-.354-5.304-.354-8.486-.354-12.376-1.414-25.812-6.365-35.713-10.607-5.304-2.475-10.608-4.243-15.912-7.426-4.243-2.475-7.779-5.304-11.314-8.132-13.436-9.901-24.751-19.801-35.36-33.945-19.094-26.519-28.994-59.757-27.58-92.641s14.497-65.061 35.359-88.752c-1.061 1.061 1.414-2.475 3.536-4.596 0 .707-.354 1.768 2.122-.707 2.122-2.475-.707-.707.353-2.122 21.923-24.044 60.111-43.492 99.36-44.199 1.414-1.061 3.889-2.475 6.718-1.768 0 .354-1.768.354-1.768.354 3.889-.354 7.425-.354 9.193.353.354-.354-1.414-.707 0-.707 2.475.707 3.182 0 4.597.707-1.061 0-2.122 0-2.829.354 8.84 0 14.497 2.122 23.337 2.829-4.597-1.061-5.657-1.061-9.193-2.122 3.889.707 5.657 1.414 7.425 1.061-.707 0-.354-1.061.354-.707 7.072 1.768 7.779 2.475 15.204 4.95.707-.707-3.182-1.061-4.243-2.122 7.072 2.475 13.436 4.243 17.68 7.072-1.414-1.061-5.657-2.475-8.84-3.889-.354.354 1.061.707 1.414 1.414-3.536-1.768-8.486-3.536-13.436-4.243 4.243 1.061 7.072 2.475 8.84 3.182-3.889-.707-8.84-3.182-14.498-4.243 9.193 2.829 26.519 9.193 37.127 14.851-3.889-2.475-8.486-4.243-10.961-5.657 2.122.354 4.597 1.768 4.597 1.06 2.475 1.061 5.657 3.536 7.425 3.89-3.182-2.122-9.547-5.304-11.668-6.365 26.519 12.022 50.21 32.177 65.414 57.989 1.414 2.475 3.536 8.133 5.304 8.84-.354-1.768-1.768-2.829-3.182-5.657.707 0 .707-1.061 0-2.122-1.414-1.768 0 1.414-1.415-.354-6.365-11.669-14.144-21.923-26.165-33.237 6.718 6.365 1.768 1.768.353-.354 9.193 8.133 19.801 21.923 24.398 28.995-.707-1.061-1.061-1.768-.707-1.768 8.486 14.497 13.79 27.58 19.094 46.32.354.354 0-1.414.707-.353 3.536 14.851 4.597 27.227 4.243 38.541 2.829-19.094-3.536-48.796-14.851-72.133-1.414-2.829-1.414-.707-2.829-3.889 0-1.061-1.061-3.182-1.768-4.597-14.144-23.337-31.47-39.956-51.978-53.038 1.414.707 4.243 2.829 4.244 2.475C208.619 24.036 164.42 20.5 128 28.279c-2.475 1.061-3.536 2.122-6.365 3.536 5.304-1.768 8.486-2.122 13.437-3.183 1.061-1.061-4.597.354-2.122-.707.354.354 4.95-.707 6.011-.353 0 .354-1.414.707-1.768 1.06 11.669-2.475 23.691-2.829 33.945-2.121-6.011.354-16.972-.707-20.508 1.061 3.536-.354 8.486-.707 11.668-.354-4.243 0-12.022.354-15.558.707-.354-.354 5.657-1.061 1.768-1.06-1.768.354-4.597.354-5.657 1.414-30.409 2.829-60.111 18.74-80.973 37.481-4.243 3.536-9.193 7.425-12.375 11.314-7.779 8.84-12.729 17.68-18.387 25.459 3.536-7.425 11.315-18.74 20.508-28.287s19.094-17.68 24.398-21.923c0 1.414 8.486-5.304 11.669-7.425-2.122 1.768 1.414-.707 2.121-.354 11.315-6.718 20.508-9.193 30.763-13.083-2.475.707-4.597 1.414-4.951 1.061 2.475-.707 3.889-1.414 3.536-1.768-9.901 2.829-25.459 9.547-37.834 16.972 22.276-15.204 50.564-24.398 78.497-24.751 27.934-.707 55.16 6.365 76.729 17.68 14.497 6.365 28.287 18.033 39.249 29.348 3.182 2.829.707-.707 5.304 4.243-1.414-.707-2.475-1.414-.707.707 2.829 3.182-.707-2.475 3.889 3.182-.354 0-1.768-1.768-1.768-1.061 12.376 10.961 21.923 30.762 27.58 43.846-1.414-5.304-4.95-12.729-7.779-18.033 8.486 15.558 11.315 24.751 14.851 38.541 1.414 1.061-.707-4.95.707-2.121.354 2.122.707 8.84 2.122 9.9-1.061-6.718-2.829-14.851-4.243-16.265 1.061.707-1.768-8.133-3.536-10.254-.707-5.657-5.657-15.558-9.901-22.984-15.204-29.702-42.431-54.099-72.839-67.536 0-.707-1.768-1.414-2.476-2.121-30.055-12.729-66.122-16.265-100.773-8.133C91.226 30.4 58.343 50.555 35.005 79.55c1.061-3.536 9.901-10.254 10.255-13.083-10.254 10.961-21.215 25.459-28.641 41.016-7.779 15.558-12.022 31.47-13.79 43.138" fill="#4b47ff"/><g transform="translate(48 155.675)"><svg height="48.65" width="224"><svg height="48.65" width="224"><svg height="48.65" width="224"><svg height="48.65" width="224"><svg height="48.65" width="224"><svg height="48.65" width="224"><svg width="224" viewBox="0.55 -37 172.19 37.4" height="48.65"><path d="M36.45-35.1H46.5L40.3 0h-8.55l3.75-21.05L23.9 0H17l-4.2-21.15L9.1 0H.55l6.2-35.1h10.1l5.6 24.3 14-24.3zm16.2 0h8.55L55 0h-8.55l6.2-35.1zM65.15.4q-2 0-3.18-1.08Q60.8-1.75 60.8-3.4h0q0-2.3 1.72-3.9 1.73-1.6 4.28-1.6h0q1.95 0 3.1 1.07 1.15 1.08 1.15 2.78h0q0 2.25-1.73 3.85Q67.6.4 65.15.4h0zM76.09-14q.75-4.3 2.95-7.55 2.2-3.25 5.3-5 3.1-1.75 6.55-1.75h0q2.75 0 4.83 1.15 2.07 1.15 3.02 3.1h0l2.3-12.95h8.55l-6.55 37h-8.55l.7-4q-1.6 2-4 3.2Q88.79.4 85.84.4h0q-2.95 0-5.22-1.35-2.28-1.35-3.55-3.85-1.28-2.5-1.28-5.85h0q0-1.55.3-3.35h0zm20.9.05q.15-.9.15-1.65h0q0-2.45-1.42-3.85-1.43-1.4-3.63-1.4h0q-2.55 0-4.65 1.82-2.1 1.83-2.65 5.03h0q-.15.9-.15 1.65h0q0 2.45 1.43 3.88 1.42 1.42 3.57 1.42h0q2.55 0 4.65-1.85 2.1-1.85 2.7-5.05h0zm29.65-14.35q5.4 0 8.58 2.92 3.17 2.93 3.17 7.98h0q0 1.65-.25 2.95h0q-.2 1.15-.6 2.45h0-19.35q-.05.3-.05.95h0q0 2.2 1.2 3.35 1.2 1.15 3.2 1.15h0q3.2 0 4.9-2.7h0 9.1q-1.8 4.25-5.85 6.95-4.05 2.7-9.1 2.7h0q-5.4 0-8.62-3-3.23-3-3.23-8.15h0q0-1.55.3-3.2h0q.75-4.35 3.1-7.6 2.35-3.25 5.85-5 3.5-1.75 7.65-1.75h0zm3.1 11.95q.1-.7.1-.95h0q0-2-1.25-3.08-1.25-1.07-3.3-1.07h0q-2.2 0-3.87 1.32-1.68 1.33-2.43 3.78h0 10.75zm21.7-11.55L153.99-8l9.6-19.9h9.15L157.89 0h-10.6l-4.95-27.9h9.1z" fill="#fff"/></svg></svg></svg></svg></svg></svg></svg></g></svg></svg></svg></svg>

<svg xmlns="http://www.w3.org/2000/svg" version="1.1" xmlns:xlink="http://www.w3.org/1999/xlink" xmlns:svgjs="http://svgjs.dev/svgjs" width="2000" height="2250" viewBox="0 0 2000 2250"><g transform="matrix(1,0,0,1,0,0)"><svg viewBox="0 0 320 360" data-background-color="#ffffff" preserveAspectRatio="xMidYMid meet" height="2250" width="2000" xmlns="http://www.w3.org/2000/svg" xmlns:xlink="http://www.w3.org/1999/xlink"><g id="tight-bounds" transform="matrix(1,0,0,1,0,0)"><svg viewBox="0 0 320 360" height="360" width="320"><g><svg></svg></g><g><svg viewBox="0 0 320 360" height="360" width="320"><g><path d="M219.58 41.008c0.707 0 6.365 2.829 9.547 3.89-1.061 0.354-3.536-0.707-6.365-1.768 0.707 0 2.122 0.354 3.536 1.06-0.707-0.707-6.011-2.475-6.718-3.182M166.895 30.047c1.061-0.354 13.436 1.414 19.094 1.768 0.354-0.354-0.707-0.354-2.122-0.707 1.768-0.354 5.304 0.707 7.779 1.06-7.425 0.354-15.558-1.768-22.629-1.06-2.475 0-0.707-0.707-2.122-1.061M156.641 30.047c6.365 0 11.315 0 2.121 0.707-1.061-0.354-2.475-0.354-2.121-0.707M256.707 59.395c0.707 0 3.536 3.182 4.95 4.243-0.354 0.354-3.182-2.475-4.596-3.536 0.354 0.354 0 0-0.354-0.707M249.635 54.798c-2.829-2.475-3.889-2.475-4.243-3.889 2.475 1.414 4.243 2.829 4.243 3.889M204.022 32.522c0.354-0.354 1.061 0.354 2.829 0.707-2.122-0.354-1.768 0-1.061 0.707-2.475-0.354-3.182-0.707-2.475-1.414 1.414 0.707 1.768 0.354 0.707 0M103.602 36.765c0-0.354 1.414-1.061 2.475-1.414-1.061 0.707-0.707 1.061 1.061 0.353 0 0.354-2.122 1.061-3.536 1.768 0.707-0.354 1.414-1.414 0-0.707M211.094 28.986c-1.061 0.354-4.95-1.768-8.84-2.475-2.122-0.707 8.486 1.768 8.84 2.475M2.475 203.66c2.122 8.84 0.707 8.486 0 0M2.829 150.621c0.354-1.414 0.707-5.304 1.06-4.95-1.061 8.486-2.829 12.376-3.182 18.74 1.061-5.657-0.354 3.182-0.707 5.304 0.354 2.829 0.354-1.768 1.061-1.06 0.707 1.061-1.414 15.912-0.707 7.779-0.707 7.425 0 15.558 1.414 17.679-1.768 11.315 7.072 36.773 8.84 42.077 0.354 0.354 0-1.768 0.707-0.353 0.707 4.597 3.889 7.779 4.95 12.729 1.061 1.414 5.304 9.193 6.011 10.962 1.414 2.829 2.122 2.475 3.536 5.303 4.243 8.133 10.961 15.912 17.326 23.337 20.508 24.044 51.978 43.845 86.984 50.918 35.006 7.425 71.779 2.122 100.419-11.669 1.768-1.061 1.414-1.414 3.536-2.122 9.901-3.182 21.923-13.436 28.641-17.326 3.182-3.536 11.669-9.547 12.73-13.082 6.011-4.95 12.022-13.083 15.204-18.387 1.768-2.829 3.182-2.829 3.889-4.597-0.354 0 5.657-7.425 7.426-11.668-0.707 0-1.768 2.122-1.768 0 12.729-24.398 19.801-57.282 15.911-79.912 0.707 27.934-6.365 59.05-19.801 78.851-6.011 12.729-18.387 26.519-29.701 36.42-1.768 1.768-3.536 3.889-5.658 5.304-6.718 5.657-14.144 10.254-21.922 14.497-18.387 10.254-38.895 19.094-62.94 19.447 41.37-3.536 78.497-24.398 99.006-49.856-15.558 15.204-22.276 21.215-39.602 30.055-1.414 2.475-13.083 7.425-20.862 9.547 4.597-2.122 14.144-5.657 17.326-8.486-25.812 12.376-54.453 19.448-81.326 15.558 10.254 0 24.751 0.354 38.541-2.121 2.122-0.707 3.182-1.414 5.658-1.768 26.873-6.011 52.685-19.094 71.072-37.481-10.608 9.547-26.519 20.862-36.774 24.398 9.547-5.304 26.873-15.558 32.53-23.337-11.315 11.315-32.53 22.63-45.966 27.58-2.122 0.354 1.414-1.414-2.122 0-4.243 1.061-2.475 1.061-3.536 1.768-16.265 4.597-35.006 8.486-50.563 7.072-2.829-0.354-3.889-1.061-6.365-1.061-2.829-0.354-5.304-0.354-8.486-0.354-12.376-1.414-25.812-6.365-35.713-10.607-5.304-2.475-10.608-4.243-15.912-7.426-4.243-2.475-7.779-5.304-11.314-8.132-13.436-9.901-24.751-19.801-35.36-33.945-19.094-26.519-28.994-59.757-27.58-92.641 1.414-32.884 14.497-65.061 35.359-88.752-1.061 1.061 1.414-2.475 3.536-4.596 0 0.707-0.354 1.768 2.122-0.707 2.122-2.475-0.707-0.707 0.353-2.122 21.923-24.044 60.111-43.492 99.36-44.199 1.414-1.061 3.889-2.475 6.718-1.768 0 0.354-1.768 0.354-1.768 0.354 3.889-0.354 7.425-0.354 9.193 0.353 0.354-0.354-1.414-0.707 0-0.707 2.475 0.707 3.182 0 4.597 0.707-1.061 0-2.122 0-2.829 0.354 8.84 0 14.497 2.122 23.337 2.829-4.597-1.061-5.657-1.061-9.193-2.122 3.889 0.707 5.657 1.414 7.425 1.061-0.707 0-0.354-1.061 0.354-0.707 7.072 1.768 7.779 2.475 15.204 4.95 0.707-0.707-3.182-1.061-4.243-2.122 7.072 2.475 13.436 4.243 17.68 7.072-1.414-1.061-5.657-2.475-8.84-3.889-0.354 0.354 1.061 0.707 1.414 1.414-3.536-1.768-8.486-3.536-13.436-4.243 4.243 1.061 7.072 2.475 8.84 3.182-3.889-0.707-8.84-3.182-14.498-4.243 9.193 2.829 26.519 9.193 37.127 14.851-3.889-2.475-8.486-4.243-10.961-5.657 2.122 0.354 4.597 1.768 4.597 1.06 2.475 1.061 5.657 3.536 7.425 3.89-3.182-2.122-9.547-5.304-11.668-6.365 26.519 12.022 50.21 32.177 65.414 57.989 1.414 2.475 3.536 8.133 5.304 8.84-0.354-1.768-1.768-2.829-3.182-5.657 0.707 0 0.707-1.061 0-2.122-1.414-1.768 0 1.414-1.415-0.354-6.365-11.669-14.144-21.923-26.165-33.237 6.718 6.365 1.768 1.768 0.353-0.354 9.193 8.133 19.801 21.923 24.398 28.995-0.707-1.061-1.061-1.768-0.707-1.768 8.486 14.497 13.79 27.58 19.094 46.32 0.354 0.354 0-1.414 0.707-0.353 3.536 14.851 4.597 27.227 4.243 38.541 2.829-19.094-3.536-48.796-14.851-72.133-1.414-2.829-1.414-0.707-2.829-3.889 0-1.061-1.061-3.182-1.768-4.597-14.144-23.337-31.47-39.956-51.978-53.038 1.414 0.707 4.243 2.829 4.244 2.475-38.188-25.105-82.387-28.641-118.807-20.862-2.475 1.061-3.536 2.122-6.365 3.536 5.304-1.768 8.486-2.122 13.437-3.183 1.061-1.061-4.597 0.354-2.122-0.707 0.354 0.354 4.95-0.707 6.011-0.353 0 0.354-1.414 0.707-1.768 1.06 11.669-2.475 23.691-2.829 33.945-2.121-6.011 0.354-16.972-0.707-20.508 1.061 3.536-0.354 8.486-0.707 11.668-0.354-4.243 0-12.022 0.354-15.558 0.707-0.354-0.354 5.657-1.061 1.768-1.06-1.768 0.354-4.597 0.354-5.657 1.414-30.409 2.829-60.111 18.74-80.973 37.481-4.243 3.536-9.193 7.425-12.375 11.314-7.779 8.84-12.729 17.68-18.387 25.459 3.536-7.425 11.315-18.74 20.508-28.287 9.193-9.547 19.094-17.68 24.398-21.923 0 1.414 8.486-5.304 11.669-7.425-2.122 1.768 1.414-0.707 2.121-0.354 11.315-6.718 20.508-9.193 30.763-13.083-2.475 0.707-4.597 1.414-4.951 1.061 2.475-0.707 3.889-1.414 3.536-1.768-9.901 2.829-25.459 9.547-37.834 16.972 22.276-15.204 50.564-24.398 78.497-24.751 27.934-0.707 55.16 6.365 76.729 17.68 14.497 6.365 28.287 18.033 39.249 29.348 3.182 2.829 0.707-0.707 5.304 4.243-1.414-0.707-2.475-1.414-0.707 0.707 2.829 3.182-0.707-2.475 3.889 3.182-0.354 0-1.768-1.768-1.768-1.061 12.376 10.961 21.923 30.762 27.58 43.846-1.414-5.304-4.95-12.729-7.779-18.033 8.486 15.558 11.315 24.751 14.851 38.541 1.414 1.061-0.707-4.95 0.707-2.121 0.354 2.122 0.707 8.84 2.122 9.9-1.061-6.718-2.829-14.851-4.243-16.265 1.061 0.707-1.768-8.133-3.536-10.254-0.707-5.657-5.657-15.558-9.901-22.984-15.204-29.702-42.431-54.099-72.839-67.536 0-0.707-1.768-1.414-2.476-2.121-30.055-12.729-66.122-16.265-100.773-8.133-35.006 8.486-67.889 28.641-91.227 57.636 1.061-3.536 9.901-10.254 10.255-13.083-10.254 10.961-21.215 25.459-28.641 41.016-7.779 15.558-12.022 31.47-13.79 43.138" fill="#4b47ff" fill-rule="nonzero" stroke="none" stroke-width="1" stroke-linecap="butt" stroke-linejoin="miter" stroke-miterlimit="10" stroke-dasharray="" stroke-dashoffset="0" font-family="none" font-weight="none" font-size="none" text-anchor="none" style="mix-blend-mode: normal" data-fill-palette-color="tertiary"></path></g><g transform="matrix(1,0,0,1,48,155.6747967479675)"><svg viewBox="0 0 224 48.65040650406503" height="48.65040650406503" width="224"><g><svg viewBox="0 0 224 48.65040650406503" height="48.65040650406503" width="224"><g><svg viewBox="0 0 224.00000000000003 48.65040650406504" height="48.65040650406503" width="224"><g><svg viewBox="0 0 224.00000000000003 48.65040650406504" height="48.65040650406504" width="224.00000000000003"><g id="textblocktransform"><svg viewBox="0 0 224.00000000000003 48.65040650406504" height="48.65040650406504" width="224.00000000000003" id="textblock"><g><svg viewBox="0 0 224.00000000000003 48.65040650406504" height="48.65040650406504" width="224.00000000000003"><g transform="matrix(1,0,0,1,0,0)"><svg width="224.00000000000003" viewBox="0.55 -37 172.19 37.4" height="48.65040650406504" data-palette-color="#ffffff"><g class="wordmark-text-0" data-fill-palette-color="primary" id="text-0"><path d="M36.45-35.1L46.5-35.1 40.3 0 31.75 0 35.5-21.05 23.9 0 17 0 12.8-21.15 9.1 0 0.55 0 6.75-35.1 16.85-35.1 22.45-10.8 36.45-35.1ZM52.65-35.1L61.2-35.1 55 0 46.45 0 52.65-35.1ZM65.15 0.4Q63.15 0.4 61.97-0.68 60.8-1.75 60.8-3.4L60.8-3.4Q60.8-5.7 62.52-7.3 64.25-8.9 66.8-8.9L66.8-8.9Q68.75-8.9 69.9-7.83 71.05-6.75 71.05-5.05L71.05-5.05Q71.05-2.8 69.32-1.2 67.6 0.4 65.15 0.4L65.15 0.4ZM76.09-14Q76.84-18.3 79.04-21.55 81.24-24.8 84.34-26.55 87.44-28.3 90.89-28.3L90.89-28.3Q93.64-28.3 95.72-27.15 97.79-26 98.74-24.05L98.74-24.05 101.04-37 109.59-37 103.04 0 94.49 0 95.19-4Q93.59-2 91.19-0.8 88.79 0.4 85.84 0.4L85.84 0.4Q82.89 0.4 80.62-0.95 78.34-2.3 77.07-4.8 75.79-7.3 75.79-10.65L75.79-10.65Q75.79-12.2 76.09-14L76.09-14ZM96.99-13.95Q97.14-14.85 97.14-15.6L97.14-15.6Q97.14-18.05 95.72-19.45 94.29-20.85 92.09-20.85L92.09-20.85Q89.54-20.85 87.44-19.03 85.34-17.2 84.79-14L84.79-14Q84.64-13.1 84.64-12.35L84.64-12.35Q84.64-9.9 86.07-8.47 87.49-7.05 89.64-7.05L89.64-7.05Q92.19-7.05 94.29-8.9 96.39-10.75 96.99-13.95L96.99-13.95ZM126.64-28.3Q132.04-28.3 135.22-25.38 138.39-22.45 138.39-17.4L138.39-17.4Q138.39-15.75 138.14-14.45L138.14-14.45Q137.94-13.3 137.54-12L137.54-12 118.19-12Q118.14-11.7 118.14-11.05L118.14-11.05Q118.14-8.85 119.34-7.7 120.54-6.55 122.54-6.55L122.54-6.55Q125.74-6.55 127.44-9.25L127.44-9.25 136.54-9.25Q134.74-5 130.69-2.3 126.64 0.4 121.59 0.4L121.59 0.4Q116.19 0.4 112.97-2.6 109.74-5.6 109.74-10.75L109.74-10.75Q109.74-12.3 110.04-13.95L110.04-13.95Q110.79-18.3 113.14-21.55 115.49-24.8 118.99-26.55 122.49-28.3 126.64-28.3L126.64-28.3ZM129.74-16.35Q129.84-17.05 129.84-17.3L129.84-17.3Q129.84-19.3 128.59-20.38 127.34-21.45 125.29-21.45L125.29-21.45Q123.09-21.45 121.42-20.13 119.74-18.8 118.99-16.35L118.99-16.35 129.74-16.35ZM151.44-27.9L153.99-8 163.59-27.9 172.74-27.9 157.89 0 147.29 0 142.34-27.9 151.44-27.9Z" fill="#ffffff" data-fill-palette-color="primary"></path></g></svg></g></svg></g></svg></g></svg></g></svg></g></svg></g></svg></g></svg></g><defs></defs></svg><rect width="320" height="360" fill="none" stroke="none" visibility="hidden"></rect></g></svg></g></svg>
